app/javascript/images/logo-symbol-wordmark.svg

<svg width="261" height="66" viewBox="0 0 261 66" fill="none" xmlns="http://www.w3.org/2000/svg" xmlns:xlink="http://www.w3.org/1999/xlink">
<symbol id="logo-symbol-wordmark"><path d="M60.7539 14.4034C59.8143 7.41942 53.7273 1.91557 46.5117 0.849066C45.2943 0.668854 40.6819 0.0130005 29.9973 0.0130005H29.9175C19.2299 0.0130005 16.937 0.668854 15.7196 0.849066C8.70488 1.88602 2.29885 6.83152 0.744617 13.8982C-0.00294988 17.3784 -0.0827298 21.2367 0.0561464 24.7759C0.254119 29.8514 0.292531 34.918 0.753482 39.9728C1.07215 43.3305 1.62806 46.6614 2.41704 49.9406C3.89445 55.9969 9.87499 61.0369 15.7344 63.0931C22.0077 65.2374 28.7542 65.5934 35.2184 64.1212C35.9295 63.9558 36.6318 63.7638 37.3252 63.5451C38.8971 63.0459 40.738 62.4875 42.0913 61.5067C42.1099 61.4929 42.1251 61.4751 42.1358 61.4547C42.1466 61.4342 42.1526 61.4116 42.1534 61.3885V56.4903C42.153 56.4687 42.1479 56.4475 42.1383 56.4281C42.1287 56.4088 42.1149 56.3918 42.0979 56.3785C42.0809 56.3652 42.0611 56.3559 42.04 56.3512C42.019 56.3465 41.9971 56.3466 41.9761 56.3514C37.8345 57.3406 33.5905 57.8364 29.3324 57.8286C22.0045 57.8286 20.0336 54.3514 19.4693 52.9038C19.0156 51.6527 18.7275 50.3476 18.6124 49.0218C18.6112 48.9996 18.6153 48.9773 18.6243 48.9569C18.6333 48.9366 18.647 48.9186 18.6643 48.9045C18.6816 48.8904 18.7019 48.8805 18.7237 48.8758C18.7455 48.871 18.7681 48.8715 18.7897 48.8771C22.8622 49.8595 27.037 50.3553 31.2265 50.3542C32.234 50.3542 33.2387 50.3542 34.2463 50.3276C38.4598 50.2094 42.9009 49.9938 47.0465 49.1843C47.1499 49.1636 47.2534 49.1459 47.342 49.1193C53.881 47.8637 60.1038 43.9227 60.7362 33.9431C60.7598 33.5502 60.8189 29.8278 60.8189 29.4201C60.8218 28.0345 61.2651 19.5911 60.7539 14.4034Z" fill="url(#paint0_linear_89_11)"/>
<path d="M12.3442 18.3034C12.3442 16.2668 13.9777 14.6194 15.997 14.6194C18.0163 14.6194 19.6497 16.2668 19.6497 18.3034C19.6497 20.34 18.0163 21.9874 15.997 21.9874C13.9777 21.9874 12.3442 20.34 12.3442 18.3034Z" fill="currentColor"/>
<path d="M66.1484 21.4685V38.3839H59.4988V21.9744C59.4988 18.5109 58.0583 16.7597 55.1643 16.7597C51.9746 16.7597 50.3668 18.8482 50.3668 22.9603V31.9499H43.7687V22.9603C43.7687 18.8352 42.1738 16.7597 38.9712 16.7597C36.0901 16.7597 34.6367 18.5109 34.6367 21.9744V38.3839H28V21.4685C28 18.018 28.8746 15.268 30.6238 13.2314C32.4374 11.1948 34.8039 10.157 37.7365 10.157C41.132 10.157 43.7172 11.4802 45.415 14.1135L47.0742 16.9154L48.7334 14.1135C50.4311 11.4802 53.0035 10.157 56.4119 10.157C59.3444 10.157 61.711 11.1948 63.5246 13.2314C65.2738 15.268 66.1484 18.005 66.1484 21.4685ZM89.0297 29.8743C90.4059 28.4085 91.0619 26.5795 91.0619 24.3613C91.0619 22.1431 90.4059 20.3011 89.0297 18.9001C87.7049 17.4343 86.0329 16.7338 84.0007 16.7338C81.9685 16.7338 80.2965 17.4343 78.9717 18.9001C77.6469 20.3011 76.991 22.1431 76.991 24.3613C76.991 26.5795 77.6469 28.4215 78.9717 29.8743C80.2965 31.2753 81.9685 31.9888 84.0007 31.9888C86.0329 31.9888 87.7049 31.2883 89.0297 29.8743ZM91.0619 10.8316H97.6086V37.891H91.0619V34.6999C89.0811 37.3462 86.3416 38.6563 82.7788 38.6563C79.2161 38.6563 76.4765 37.3073 74.0456 34.5442C71.6533 31.7812 70.4443 28.3696 70.4443 24.3743C70.4443 20.3789 71.6661 17.0192 74.0456 14.2561C76.4893 11.4931 79.3833 10.0922 82.7788 10.0922C86.1744 10.0922 89.0811 11.3894 91.0619 14.0356V10.8445V10.8316ZM119.654 23.8683C121.583 25.3342 122.548 27.3837 122.496 29.9781C122.496 32.7411 121.532 34.9075 119.551 36.4122C117.57 37.878 115.178 38.6304 112.284 38.6304C107.049 38.6304 103.499 36.4641 101.621 32.1963L107.306 28.7847C108.065 31.1067 109.737 32.3001 112.284 32.3001C114.625 32.3001 115.782 31.5477 115.782 29.9781C115.782 28.8366 114.265 27.8118 111.165 27.0075C109.995 26.6833 109.03 26.359 108.271 26.0865C107.204 25.6585 106.29 25.1655 105.532 24.5688C103.654 23.103 102.689 21.1572 102.689 18.6666C102.689 16.0203 103.602 13.9059 105.429 12.3882C107.306 10.8186 109.596 10.0662 112.335 10.0662C116.709 10.0662 119.898 11.9601 121.982 15.7998L116.4 19.0428C115.59 17.2008 114.213 16.2798 112.335 16.2798C110.355 16.2798 109.39 17.0321 109.39 18.498C109.39 19.6395 110.908 20.6643 114.008 21.4685C116.4 22.0134 118.278 22.8176 119.641 23.8554L119.654 23.8683ZM140.477 17.538H134.741V28.7977C134.741 30.1468 135.255 30.964 136.22 31.3402C136.927 31.6126 138.355 31.6645 140.49 31.5607V37.891C136.079 38.4358 132.876 37.9948 130.998 36.5419C129.12 35.1409 128.207 32.5336 128.207 28.8106V17.538H123.795V10.8316H128.207V5.37038L134.754 3.25595V10.8316H140.49V17.538H140.477ZM161.352 29.7187C162.677 28.3177 163.333 26.5276 163.333 24.3613C163.333 22.195 162.677 20.4178 161.352 19.0039C160.027 17.6029 158.407 16.8894 156.426 16.8894C154.445 16.8894 152.825 17.5899 151.5 19.0039C150.227 20.4697 149.571 22.2469 149.571 24.3613C149.571 26.4757 150.227 28.2529 151.5 29.7187C152.825 31.1196 154.445 31.8331 156.426 31.8331C158.407 31.8331 160.027 31.1326 161.352 29.7187ZM146.883 34.5313C144.297 31.7682 143.024 28.4215 143.024 24.3613C143.024 20.3011 144.297 17.0062 146.883 14.2432C149.468 11.4802 152.67 10.0792 156.426 10.0792C160.182 10.0792 163.384 11.4802 165.97 14.2432C168.555 17.0062 169.88 20.4178 169.88 24.3613C169.88 28.3047 168.555 31.7682 165.97 34.5313C163.384 37.2943 160.233 38.6434 156.426 38.6434C152.619 38.6434 149.468 37.2943 146.883 34.5313ZM191.771 29.8743C193.095 28.4085 193.751 26.5795 193.751 24.3613C193.751 22.1431 193.095 20.3011 191.771 18.9001C190.446 17.4343 188.774 16.7338 186.742 16.7338C184.709 16.7338 183.037 17.4343 181.661 18.9001C180.336 20.3011 179.68 22.1431 179.68 24.3613C179.68 26.5795 180.336 28.4215 181.661 29.8743C183.037 31.2753 184.761 31.9888 186.742 31.9888C188.722 31.9888 190.446 31.2883 191.771 29.8743ZM193.751 0H200.298V37.891H193.751V34.6999C191.822 37.3462 189.082 38.6563 185.52 38.6563C181.957 38.6563 179.179 37.3073 176.735 34.5442C174.343 31.7812 173.134 28.3696 173.134 24.3743C173.134 20.3789 174.356 17.0192 176.735 14.2561C179.166 11.4931 182.111 10.0922 185.52 10.0922C188.928 10.0922 191.822 11.3894 193.751 14.0356V0.0129719V0ZM223.308 29.7057C224.633 28.3047 225.289 26.5146 225.289 24.3483C225.289 22.182 224.633 20.4048 223.308 18.9909C221.983 17.5899 220.363 16.8765 218.382 16.8765C216.401 16.8765 214.78 17.577 213.456 18.9909C212.182 20.4567 211.526 22.2339 211.526 24.3483C211.526 26.4627 212.182 28.2399 213.456 29.7057C214.78 31.1067 216.401 31.8201 218.382 31.8201C220.363 31.8201 221.983 31.1196 223.308 29.7057ZM208.838 34.5183C206.253 31.7553 204.98 28.4085 204.98 24.3483C204.98 20.2881 206.253 16.9932 208.838 14.2302C211.424 11.4672 214.626 10.0662 218.382 10.0662C222.137 10.0662 225.34 11.4672 227.925 14.2302C230.511 16.9932 231.835 20.4048 231.835 24.3483C231.835 28.2918 230.511 31.7553 227.925 34.5183C225.34 37.2813 222.189 38.6304 218.382 38.6304C214.575 38.6304 211.424 37.2813 208.838 34.5183ZM260.17 21.261V37.878H253.623V22.1301C253.623 20.34 253.173 18.9909 252.247 17.9661C251.385 17.0451 250.164 16.5651 248.594 16.5651C244.89 16.5651 243.012 18.7833 243.012 23.2716V37.878H236.466V10.8316H243.012V13.867C244.581 11.3245 247.077 10.0792 250.575 10.0792C253.366 10.0792 255.656 11.0521 257.431 13.0498C259.257 15.0474 260.17 17.7586 260.17 21.274" fill="currentColor"/>
<defs>
<linearGradient id="paint0_linear_89_11" x1="30.5" y1="0.0130005" x2="30.5" y2="65.013" gradientUnits="userSpaceOnUse">
<stop stop-color="#6364FF"/>
<stop offset="1" stop-color="#563ACC"/>
</linearGradient>
</defs></symbol><use xlink:href="#logo-symbol-wordmark"/>
</svg>

<?xml version="1.0"?>
<svg width="261" height="66" xmlns="http://www.w3.org/2000/svg" xmlns:svg="http://www.w3.org/2000/svg">
 <symbol id="logo-symbol-wordmark">
  <path d="m60.75,14.4c-0.94,-6.98 -7.02,-12.48 -14.24,-13.55c-1.22,-0.18 -5.83,-0.84 -16.51,-0.84l-0.08,0c-10.69,0 -12.98,0.66 -14.2,0.84c-7.02,1.04 -13.42,5.98 -14.98,13.05c-0.74,3.48 -0.82,7.34 -0.68,10.88c0.19,5.07 0.23,10.14 0.69,15.19c0.32,3.36 0.88,6.69 1.67,9.97c1.47,6.06 7.45,11.1 13.31,13.15c6.28,2.15 13.02,2.5 19.49,1.03c0.71,-0.16 1.41,-0.36 2.11,-0.57c1.57,-0.5 3.41,-1.06 4.76,-2.04c0.02,-0.02 0.04,-0.03 0.05,-0.06c0.01,-0.02 0.01,-0.04 0.01,-0.06l0,-4.9c0,-0.02 0,-0.04 -0.01,-0.06c-0.01,-0.02 -0.03,-0.04 -0.04,-0.05c-0.02,-0.01 -0.04,-0.02 -0.06,-0.03c-0.02,0 -0.04,0 -0.06,0c-4.15,0.99 -8.39,1.49 -12.65,1.48c-7.33,0 -9.3,-3.48 -9.86,-4.93c-0.45,-1.25 -0.74,-2.55 -0.86,-3.88c0,-0.02 0.01,-0.04 0.01,-0.06c0.01,-0.02 0.03,-0.04 0.04,-0.06c0.02,-0.01 0.04,-0.02 0.06,-0.02c0.03,-0.01 0.05,-0.01 0.07,0c4.07,0.98 8.25,1.48 12.44,1.47c1,0 2.01,0 3.02,-0.02c4.21,-0.12 8.65,-0.34 12.8,-1.15c0.1,-0.02 0.2,-0.03 0.29,-0.06c6.54,-1.26 12.76,-5.2 13.4,-15.18c0.02,-0.39 0.08,-4.11 0.08,-4.52c0,-1.39 0.45,-9.83 -0.07,-15.02z" fill="url(#paint0_linear_89_11)" id="svg_1"/>
  <path d="m12.34,18.3c0,-2.03 1.64,-3.68 3.66,-3.68c2.02,0 3.65,1.65 3.65,3.68c0,2.04 -1.63,3.69 -3.65,3.69c-2.02,0 -3.66,-1.65 -3.66,-3.69z" fill="currentColor" id="svg_2"/>
  <path d="m66.15,21.47l0,16.91l-6.65,0l0,-16.41c0,-3.46 -1.44,-5.21 -4.34,-5.21c-3.19,0 -4.79,2.09 -4.79,6.2l0,8.99l-6.6,0l0,-8.99c0,-4.12 -1.6,-6.2 -4.8,-6.2c-2.88,0 -4.33,1.75 -4.33,5.21l0,16.41l-6.64,0l0,-16.91c0,-3.45 0.87,-6.2 2.62,-8.24c1.82,-2.04 4.18,-3.07 7.12,-3.07c3.39,0 5.98,1.32 7.67,3.95l1.66,2.81l1.66,-2.81c1.7,-2.63 4.27,-3.95 7.68,-3.95c2.93,0 5.3,1.03 7.11,3.07c1.75,2.04 2.63,4.77 2.63,8.24zm22.88,8.4c1.38,-1.46 2.03,-3.29 2.03,-5.51c0,-2.22 -0.65,-4.06 -2.03,-5.46c-1.33,-1.47 -3,-2.17 -5.03,-2.17c-2.03,0 -3.7,0.7 -5.03,2.17c-1.32,1.4 -1.98,3.24 -1.98,5.46c0,2.22 0.66,4.06 1.98,5.51c1.33,1.41 3,2.12 5.03,2.12c2.03,0 3.7,-0.7 5.03,-2.12zm2.03,-19.04l6.55,0l0,27.06l-6.55,0l0,-3.19c-1.98,2.65 -4.72,3.96 -8.28,3.96c-3.56,0 -6.3,-1.35 -8.73,-4.12c-2.4,-2.76 -3.61,-6.17 -3.61,-10.17c0,-3.99 1.23,-7.35 3.61,-10.11c2.44,-2.77 5.33,-4.17 8.73,-4.17c3.39,0 6.3,1.3 8.28,3.95l0,-3.2l0,-0.01zm28.59,13.04c1.93,1.46 2.9,3.51 2.85,6.11c0,2.76 -0.97,4.93 -2.95,6.43c-1.98,1.47 -4.37,2.22 -7.27,2.22c-5.23,0 -8.78,-2.17 -10.66,-6.43l5.69,-3.42c0.75,2.33 2.43,3.52 4.97,3.52c2.35,0 3.5,-0.75 3.5,-2.32c0,-1.14 -1.51,-2.17 -4.61,-2.97c-1.17,-0.33 -2.14,-0.65 -2.9,-0.92c-1.07,-0.43 -1.98,-0.92 -2.74,-1.52c-1.88,-1.47 -2.84,-3.41 -2.84,-5.9c0,-2.65 0.91,-4.76 2.74,-6.28c1.88,-1.57 4.17,-2.32 6.9,-2.32c4.38,0 7.57,1.89 9.65,5.73l-5.58,3.24c-0.81,-1.84 -2.19,-2.76 -4.07,-2.76c-1.97,0 -2.94,0.75 -2.94,2.22c0,1.14 1.52,2.16 4.62,2.97c2.39,0.54 4.27,1.35 5.63,2.39l0.01,0.01zm20.83,-6.33l-5.74,0l0,11.26c0,1.35 0.51,2.16 1.48,2.54c0.71,0.27 2.13,0.32 4.27,0.22l0,6.33c-4.41,0.55 -7.61,0.1 -9.49,-1.35c-1.88,-1.4 -2.79,-4.01 -2.79,-7.73l0,-11.27l-4.41,0l0,-6.71l4.41,0l0,-5.46l6.54,-2.11l0,7.57l5.74,0l0,6.71l-0.01,0zm20.87,12.18c1.33,-1.4 1.98,-3.19 1.98,-5.36c0,-2.16 -0.65,-3.94 -1.98,-5.36c-1.32,-1.4 -2.94,-2.11 -4.92,-2.11c-1.99,0 -3.61,0.7 -4.93,2.11c-1.27,1.47 -1.93,3.25 -1.93,5.36c0,2.12 0.66,3.89 1.93,5.36c1.32,1.4 2.94,2.11 4.93,2.11c1.98,0 3.6,-0.7 4.92,-2.11zm-14.47,4.81c-2.58,-2.76 -3.86,-6.11 -3.86,-10.17c0,-4.06 1.28,-7.35 3.86,-10.12c2.59,-2.76 5.79,-4.16 9.55,-4.16c3.75,0 6.95,1.4 9.54,4.16c2.59,2.77 3.91,6.18 3.91,10.12c0,3.94 -1.32,7.41 -3.91,10.17c-2.59,2.76 -5.74,4.11 -9.54,4.11c-3.81,0 -6.96,-1.35 -9.55,-4.11zm44.89,-4.66c1.32,-1.46 1.98,-3.29 1.98,-5.51c0,-2.22 -0.66,-4.06 -1.98,-5.46c-1.32,-1.47 -3,-2.17 -5.03,-2.17c-2.03,0 -3.7,0.7 -5.08,2.17c-1.32,1.4 -1.98,3.24 -1.98,5.46c0,2.22 0.66,4.06 1.98,5.51c1.38,1.41 3.1,2.12 5.08,2.12c1.98,0 3.71,-0.7 5.03,-2.12zm1.98,-29.87l6.55,0l0,37.89l-6.55,0l0,-3.19c-1.93,2.65 -4.67,3.96 -8.23,3.96c-3.56,0 -6.34,-1.35 -8.78,-4.12c-2.4,-2.76 -3.61,-6.17 -3.61,-10.17c0,-3.99 1.23,-7.35 3.61,-10.11c2.43,-2.77 5.37,-4.17 8.78,-4.17c3.41,0 6.3,1.3 8.23,3.95l0,-14.03l0,-0.01zm29.56,29.71c1.32,-1.41 1.98,-3.2 1.98,-5.36c0,-2.17 -0.66,-3.95 -1.98,-5.36c-1.33,-1.4 -2.95,-2.11 -4.93,-2.11c-1.98,0 -3.6,0.7 -4.92,2.11c-1.28,1.47 -1.93,3.24 -1.93,5.36c0,2.11 0.65,3.89 1.93,5.36c1.32,1.4 2.94,2.11 4.92,2.11c1.98,0 3.6,-0.7 4.93,-2.11zm-14.47,4.81c-2.59,-2.76 -3.86,-6.11 -3.86,-10.17c0,-4.06 1.27,-7.36 3.86,-10.12c2.58,-2.76 5.79,-4.16 9.54,-4.16c3.76,0 6.96,1.4 9.55,4.16c2.58,2.76 3.91,6.17 3.91,10.12c0,3.94 -1.33,7.41 -3.91,10.17c-2.59,2.76 -5.74,4.11 -9.55,4.11c-3.81,0 -6.96,-1.35 -9.54,-4.11zm51.33,-13.26l0,16.62l-6.55,0l0,-15.75c0,-1.79 -0.45,-3.14 -1.37,-4.16c-0.87,-0.92 -2.09,-1.4 -3.66,-1.4c-3.7,0 -5.58,2.21 -5.58,6.7l0,14.61l-6.54,0l0,-27.05l6.54,0l0,3.04c1.57,-2.55 4.07,-3.79 7.56,-3.79c2.8,0 5.09,0.97 6.86,2.97c1.83,2 2.74,4.71 2.74,8.22" fill="currentColor" id="svg_3"/>
  <defs>
   <linearGradient id="paint0_linear_89_11" x1="Infinity" x2="Infinity" y1="Infinity" y2="Infinity">
    <stop stop-color="#6364FF"/>
    <stop offset="1" stop-color="#563ACC"/>
   </linearGradient>
  </defs>
 </symbol>
 <g class="layer">
  <title>Layer 1</title>
  <path d="m0.89,63.9c0.03,-2.87 5.2,-3.82 7.32,-5.81c8.19,-4.93 16.18,-10.61 21.2,-18.38c5.34,-7.93 8.23,-17.65 6.06,-26.85c-1.15,-5.71 -7.35,-10.28 -13.9,-9.56c-4.32,0.53 -9.3,1.42 -11.8,4.99c-2.71,1.82 -1.22,6.1 2.39,4.48c4.62,-1.58 10.43,1.64 10.25,6.21c0.01,4.33 -4.89,7.39 -9.45,6.98c-5.08,-0.05 -10.11,-3.72 -10.01,-8.48c-0.35,-7.68 7.06,-13.95 15,-15.56c7.1,-1.98 15.35,-1.18 21.33,2.94c4.45,2.73 7.96,6.86 8.69,11.74c1.58,6.34 -0.46,12.89 -4,18.41c-4.55,7.43 -11.5,13.52 -19.57,17.89c-7.5,4.28 -15.29,8.15 -23.36,11.5c-0.05,-0.17 -0.09,-0.33 -0.14,-0.5zm53.85,-31.3c-3.86,-1.57 -3.01,-7.93 1.48,-8.07c3.36,-0.7 6.5,2.45 5.46,5.36c-0.65,2.72 -4.3,3.9 -6.95,2.72zm0,-17.4c-3.86,-1.57 -3.01,-7.93 1.48,-8.07c3.36,-0.7 6.5,2.45 5.46,5.36c-0.67,2.73 -4.29,3.9 -6.95,2.72z" fill="#aad4ff" id="svg_5" stroke="#000000" stroke-dasharray="null" stroke-linecap="null" stroke-linejoin="null" stroke-opacity="null"/>
  <path d="m63.42,64.39c-3.48,-0.5 -4.47,-5.31 -2.17,-7.83c2.52,-3.57 7.35,-5.82 11.29,-3.62c0.16,-13.6 0.07,-27.21 0.09,-40.81c19.91,-4.28 39.84,-8.42 59.75,-12.66c-0.06,15.04 0.14,30.08 -0.14,45.11c-0.48,3.88 -4.16,6.45 -7.48,7.26c-2.91,0.96 -7,-1.12 -6.31,-4.86c0.85,-4.04 4.73,-6.96 8.46,-7.31c2.09,-0.56 5.01,2.42 4.05,-1.54c0.02,-10.27 -0.02,-20.53 -0.03,-30.8c-9.27,1.96 -18.54,3.93 -27.81,5.87c-0.06,12.57 0.13,25.15 -0.14,37.72c-0.56,4.04 -4.52,6.72 -8.06,7.23c-3.51,1.02 -7.19,-2.91 -5.21,-6.56c2.19,-4.38 7.77,-7.37 12.11,-4.82c0.03,-10.93 0.14,-21.87 -0.05,-32.8c-2.35,-0.55 -5.96,1.17 -8.73,1.41c-6.37,1.35 -12.74,2.7 -19.11,4.05c-0.09,12.85 0.03,25.71 -0.26,38.55c-1.5,4.24 -6.12,7 -10.27,6.38l0,0zm24.66,-50.9c4.58,-0.97 9.17,-1.94 13.75,-2.92c0.77,-3.47 -3.48,-0.47 -5.19,-0.66c-7.57,1.64 -15.13,3.28 -22.7,4.9c-0.44,3.55 4.56,-0.1 6.43,0.31c2.57,-0.54 5.14,-1.08 7.71,-1.63zm29,-6.2c4.6,-0.99 9.22,-1.9 13.81,-2.95c0.69,-3.45 -4.42,0.11 -6.21,-0.29c-7.13,1.5 -14.29,2.88 -21.41,4.44c-0.76,3.66 4.43,0.01 6.3,0.38c2.5,-0.53 5.01,-1.06 7.51,-1.59z" fill="#aad4ff" id="svg_9" stroke="#000000" stroke-dasharray="null" stroke-linecap="null" stroke-linejoin="null" stroke-opacity="null" transform="matrix(1, 0, 0, 1, 0, 0)"/>
  <path d="m146.7,63.99c-3.67,-0.59 -6.45,-3.42 -5.53,-6.37c1.3,-4.14 6.23,-7 11.16,-8.36c3.29,-0.85 7.01,-0.73 10.1,0.55c0.28,-15.8 0.12,-31.6 0.16,-47.4c1.11,0 2.54,-0.28 2.24,0.98c0.16,2.84 1.94,5.43 4.67,7.26c6.11,4.45 12.98,9.29 14.38,16.08c0.4,2.86 -0.03,5.75 -0.84,8.55c2.41,3.52 2.26,7.78 1.28,11.59c-0.63,2.01 -1.67,3.95 -2.98,5.75c-3.1,1.13 0.37,-1.85 0.32,-2.92c1.68,-3.22 1.87,-6.81 1.11,-10.21c-1.66,-4.97 -7.95,-7.39 -13,-9.99c-1.83,-0.56 -5.74,-3.94 -4.96,-0.63c-0.17,8.97 -0.14,17.95 -0.19,26.93c-2.12,4.16 -6.99,7.34 -12.64,8.13c-1.73,0.23 -3.55,0.32 -5.28,0.06zm35.25,-33.93c0.05,-5.11 -4.81,-9.24 -9.57,-12.27c-2.38,-1.41 -4.91,-2.9 -7.59,-3.81c0.16,2.94 1.88,5.8 3.94,8.24c3.87,4.06 9.72,6.78 12.96,11.25c0.39,-1.11 0.27,-2.28 0.26,-3.41z" fill="#aad4ff" fill-opacity="null" id="svg_11" stroke="#000000" stroke-dasharray="null" stroke-linecap="null" stroke-linejoin="null" stroke-opacity="null"/>
  <path d="m227.92,2.45l0,0c5.35,0 9.69,4.34 9.69,9.69c0,5.35 -4.34,9.69 -9.69,9.69c-5.35,0 -9.69,-4.34 -9.69,-9.69c0,-5.35 4.34,-9.69 9.69,-9.69zm0,62.98c-5.35,0 -9.69,-4.34 -9.69,-9.69c0,-5.35 4.34,-9.69 9.69,-9.69c5.35,0 9.69,4.34 9.69,9.69c0,5.35 -4.34,9.69 -9.69,9.69zm-28.5,-41.18l57,0l0,19.38l-57,0z" fill="#aad4ff" id="svg_13" stroke="#000000" stroke-dasharray="null" stroke-linecap="null" stroke-linejoin="null" stroke-opacity="null" transform="matrix(1, 0, 0, 1, 0, 0)"/>
 </g>
</svg>
